cached_logos/spinnaker.svg

<svg xmlns="http://www.w3.org/2000/svg" role="img" viewBox="-3.24 -3.24 146.35 168.35"><title>Spinnaker logo</title><defs><linearGradient id="linearGradient-1" x1="82.179%" x2="34.613%" y1="-.474%" y2="114.441%"><stop offset="0%" stop-color="#2B3990"/><stop offset="16%" stop-color="#1E62A7"/><stop offset="32%" stop-color="#1485BC"/><stop offset="49%" stop-color="#0BA1CC"/><stop offset="66%" stop-color="#05B4D7"/><stop offset="83%" stop-color="#01C0DE"/><stop offset="100%" stop-color="#00C4E0"/></linearGradient><linearGradient id="linearGradient-2" x1="-31668%" x2="-19806%" y1="78954%" y2="78954%"><stop offset="0%" stop-color="#2B3990"/><stop offset="16%" stop-color="#1E62A7"/><stop offset="32%" stop-color="#1485BC"/><stop offset="49%" stop-color="#0BA1CC"/><stop offset="66%" stop-color="#05B4D7"/><stop offset="83%" stop-color="#01C0DE"/><stop offset="100%" stop-color="#00C4E0"/></linearGradient></defs><g id="Home-page" fill="none" fill-rule="evenodd" stroke="none" stroke-width="1"><g id="Desktop" transform="translate(-809 -414)"><g id="Group-3" transform="translate(75 402)"><g id="Group-2" transform="translate(734 12)"><path id="Shape" fill="url(#linearGradient-1)" d="M12,119.400688 C66.0643784,124.759825 109.475822,92.7814361 120.304838,79.0785126 C131.133855,65.3755892 114.714249,0 114.714249,0 C96.9153367,43.7258523 64.5530116,109.998307 12,119.422742 L12,119.400688 Z" style="mix-blend-mode:multiply"/><path id="Shape" fill="url(#linearGradient-2)" d="M37,101.950582 C68.890817,103.1246 93.1649203,83.0708949 99.0165144,74.7573756 C104.868108,66.4438562 95.9090138,29 95.9090138,29 C87.0463333,54.9384738 62.3865736,92.7345356 37,101.950582 Z" style="mix-blend-mode:multiply"/><path id="Shape" fill="#149CB5" fill-rule="nonzero" d="M2.08069192,147.61817 C3.06692242,148.641569 4.23979767,149.473977 5.53842359,150.072176 C6.82714744,150.682498 8.23901389,151.000184 9.66954283,151.001724 C11.1833411,151.092946 12.6820098,150.661578 13.9065882,149.782157 C14.8970476,149.011396 15.4582057,147.825599 15.4198187,146.584513 C15.4378837,145.98061 15.3162949,145.380551 15.0642095,144.829526 C14.8331245,144.357819 14.5060901,143.937688 14.1033082,143.595087 C13.6623528,143.227967 13.17697,142.915756 12.658173,142.665539 L10.8725611,141.802918 L6.93059564,140.114859 C6.25553567,139.823713 5.59864804,139.493453 4.96339601,139.12582 C4.29853656,138.746375 3.69217565,138.275616 3.16265172,137.72778 C2.61551869,137.155912 2.17501239,136.4939 1.8612735,135.772012 C1.14186552,134.010842 1.19387915,132.035936 2.0050304,130.313706 C2.43592228,129.435 3.0493477,128.654771 3.80577468,128.0233 C4.61086564,127.364163 5.53484777,126.859644 6.52958956,126.536024 C7.64367705,126.169099 8.81241552,125.988123 9.98732123,126.000604 C11.550515,125.990375 13.0980246,126.307243 14.5270127,126.930152 C15.8592558,127.504523 17.0685255,128.32211 18.0906705,129.33954 L16.2066985,131.570455 C15.3930833,130.792106 14.4484959,130.158086 13.4147883,129.696487 C12.3246046,129.230816 11.1455774,129.00007 9.95705662,129.019776 C8.63468789,128.954706 7.32783167,129.323558 6.24207577,130.068306 C5.31236893,130.748946 4.78547311,131.837563 4.83477142,132.975932 C4.81676862,133.55621 4.95510742,134.130859 5.2357775,134.641681 C5.52091037,135.097148 5.89354,135.493696 6.3328696,135.809194 C6.78995856,136.159215 7.28171186,136.463158 7.80070318,136.716432 C8.33033385,136.979184 8.87509682,137.227064 9.4349921,137.460071 L13.3391268,139.110948 C14.1082768,139.432624 14.8518386,139.810457 15.5635756,140.241278 C16.234995,140.647274 16.8417795,141.148431 17.3643199,141.728554 C17.8801136,142.312231 18.2850284,142.982231 18.559772,143.706632 C18.8674321,144.545516 19.0161648,145.432688 18.9986088,146.324239 C19.0009939,147.350119 18.77909,148.364528 18.3479197,149.298793 C17.9102349,150.238467 17.2730208,151.075204 16.47908,151.752799 C15.6174627,152.483264 14.6207494,153.043767 13.5434129,153.403676 C12.2883088,153.81784 10.9706361,154.019016 9.64684437,153.998587 C6.00764166,154.028744 2.51716223,152.581159 0,149.997813 L2.08069192,147.61817 Z"/><path id="Shape" fill="#149CB5" fill-rule="nonzero" d="M22.2883342 155.235743L22.2883342 162 19 162 19 133.499336 21.7246197 133.499336 22.0064769 135.806179 22.1293378 135.806179C23.014163 135.031836 23.9844568 134.367456 25.020181 133.826759 26.0416842 133.284998 27.1739219 133.001835 28.3229694 133.000761 29.4717724 132.984184 30.6090026 133.238739 31.6474391 133.744903 32.6016202 134.218481 33.4280858 134.926349 34.0540661 135.806179 34.7239394 136.777002 35.213961 137.866836 35.4994877 139.020875 35.8481991 140.40055 36.0159129 141.822092 35.9981581 143.247605 36.0231598 144.796703 35.7934699 146.338994 35.31881 147.8092 34.9148962 149.05076 34.2899357 150.204001 33.4758974 151.209931 32.7436972 152.110438 31.8283934 152.83442 30.7946403 153.330738 29.7929375 153.816299 28.7001776 154.070286 27.5930315 154.074881 26.6596695 154.069048 25.738229 153.858494 24.8900931 153.457242 23.9287063 153.003688 23.0216643 152.436831 22.1871547 151.768038L22.2883342 155.235743zM22.2883342 149.089125C23.0452981 149.781418 23.9134451 150.332861 24.8539575 150.718797 25.5445369 151.005269 26.2780922 151.166401 27.0220899 151.195049 27.7975403 151.201946 28.5624822 151.010154 29.2480392 150.636942 29.9415116 150.254471 30.5438205 149.718176 31.0114536 149.066801 31.5424992 148.315112 31.9367341 147.470484 32.175018 146.573923 32.4678404 145.486276 32.608977 144.361283 32.5941902 143.232722 32.5998486 142.233194 32.5053967 141.23573 32.312333 140.256152 32.1563363 139.428115 31.8498334 138.637873 31.4089445 137.926985 31.0045871 137.299516 30.4526666 136.787545 29.8045265 136.4387 29.0785569 136.06487 28.2743546 135.880859 27.4629435 135.902917 26.5856858 135.916839 25.7258673 136.157359 24.9623641 136.602411 23.9893775 137.168775 23.0825035 137.847878 22.2594257 138.626479L22.2883342 149.089125zM39.5021485 129.287598C38.8462327 129.304657 38.2084684 129.087604 37.7216913 128.681647 37.2609755 128.279052 37 127.719367 37 127.133916 37 126.548465 37.2609755 125.98878 37.7216913 125.586185 38.7545321 124.804605 40.2418517 124.804605 41.2746925 125.586185 41.7375277 125.987697 42 126.547786 42 127.133916 42 127.720046 41.7375277 128.280135 41.2746925 128.681647 40.7903427 129.086494 40.1554896 129.303521 39.5021485 129.287598zM37.6583861 133.332139L41.2588662 133.332139 41.2588662 153 37.6583861 153 37.6583861 133.332139zM44 133.480418L46.8118081 133.480418 47.099631 136.291702 47.2250923 136.291702C48.1282313 135.395306 49.1365085 134.607275 50.2287823 133.944135 51.3442784 133.296149 52.6231126 132.969711 53.9188192 133.00221 56.0196802 133.00221 57.5547355 133.644651 58.5239852 134.929534 59.4932349 136.214416 59.9852399 138.115172 60 140.631802L60 153 56.6420664 153 56.6420664 141.073782C56.6420664 139.228575 56.3419434 137.897805 55.7416974 137.08147 55.0577877 136.226379 53.9817544 135.766236 52.8782288 135.856967 51.9089457 135.838661 50.9559697 136.103456 50.1402214 136.617753 49.1658964 137.276264 48.2610323 138.028711 47.4391144 138.863881L47.4391144 153 44.0811808 153 44 133.480418zM62 133.480468L64.7874307 133.480468 65.0757856 136.291745 65.2014787 136.291745C66.1062871 135.395351 67.1164281 134.607323 68.2107209 133.944184 69.3281238 133.295834 70.6094309 132.96937 71.9075786 133.002262 74.0123229 133.002262 75.5502157 133.644701 76.5212569 134.92958 77.4922982 136.214459 77.9852126 138.11521 78 140.631834L78 153 74.5693161 153 74.5693161 141.073813C74.5693161 139.228611 74.2686383 137.897843 73.6672828 137.08151 72.9821089 136.226422 71.9040866 135.76628 70.7985213 135.857011 69.8274465 135.838705 68.872709 136.103499 68.0554529 136.617795 67.0793269 137.276304 66.1727902 138.028749 65.349353 138.863917L65.349353 153 62 153 62 133.480468zM80.0079153 148.312629C79.9580051 146.202887 81.1286994 144.24786 83.0286179 143.268139 85.0424195 142.099264 88.2166744 141.282041 92.5513826 140.816472 92.5518682 140.195163 92.4886164 139.575392 92.3625887 138.966578 92.2475929 138.393513 92.0192295 137.848271 91.6904823 137.361851 91.3624368 136.890914 90.9249066 136.503778 90.4142355 136.232599 89.7773758 135.921021 89.0708161 135.7728 88.3601578 135.8017 87.2153054 135.790996 86.0808584 136.01623 85.0298333 136.462907 84.0700981 136.871261 83.1521732 137.368804 82.2885457 137.948765L80.9065743 135.601109C82.0100632 134.917683 83.1724712 134.330988 84.3803822 133.847796 85.8179397 133.270146 87.358703 132.982149 88.911436 133.000856 91.3934466 133.000856 93.1932819 133.743786 94.3109418 135.229644 95.5075136 136.997369 96.0952143 139.096491 95.9874317 141.217654L95.9874317 153.498275 93.1404196 153.498275 92.8459011 151.113472 92.7628317 151.113472C91.7911035 151.905735 90.732303 152.588526 89.6061976 153.149098 88.4984884 153.707512 87.2713364 153.997863 86.0266651 153.996038 84.4574067 154.051618 82.9249281 153.520763 81.7372675 152.510179 80.5547649 151.433773 79.9209029 149.895238 80.0079153 148.312629zM83.3986539 148.067462C83.3043048 149.008426 83.6887385 149.934459 84.4256928 150.541417 85.1646374 151.052662 86.0526334 151.313437 86.9555311 151.284346 87.9273776 151.285261 88.8844717 151.050506 89.7421292 150.600851 90.753823 150.054322 91.6902903 149.382711 92.5287273 148.602371L92.5287273 143.04526C91.0764987 143.218195 89.6364369 143.478711 88.2166744 143.825336 87.2308187 144.056052 86.2808902 144.415869 85.3923176 144.895154 84.7711542 145.229754 84.2503019 145.719101 83.8819663 146.314149 83.5667736 146.846537 83.4000508 147.451357 83.3986539 148.067462L83.3986539 148.067462zM97 124L100.405 124 100.405 143.637 100.533 143.637 109.231 133.209 113.022 133.209 106.198 141.153 114 153 110.209 153 104.241 143.446 100.45 147.767 100.45 152.978 97.045 152.978z"/><path id="Shape" fill="#149CB5" fill-rule="nonzero" d="M111.003085 143.58513C110.968735 142.067255 111.221504 140.556503 111.74819 139.131773 112.20927 137.911439 112.896799 136.78845 113.774877 135.821445 114.579007 134.941292 115.55519 134.234085 116.643532 133.743212 117.692708 133.260676 118.833469 133.007591 119.989055 133.000986 121.157844 132.983122 122.317544 133.208099 123.394186 133.661568 124.373995 134.081972 125.237814 134.731151 125.912642 135.554244 126.617585 136.434432 127.143963 137.442785 127.462461 138.523148 127.834825 139.778081 128.015672 141.081649 127.998936 142.390146 128.006236 143.008572 127.963879 143.626589 127.872269 144.238289L114.370961 144.238289C114.400491 146.136347 115.111544 147.96109 116.375294 149.381915 117.59315 150.652563 119.299699 151.341734 121.062006 151.274591 121.969389 151.284805 122.871753 151.139177 123.729483 150.8441 124.546178 150.55466 125.328307 150.176308 126.061663 149.715917L127.261282 151.942595C126.331058 152.514747 125.348006 152.996918 124.325567 153.382513 123.14945 153.810722 121.904235 154.019553 120.652198 153.998561 119.356178 154.001502 118.072352 153.749261 116.874515 153.256335 115.723882 152.789856 114.683457 152.089651 113.819583 151.200369 112.922065 150.259422 112.22729 149.14551 111.777994 147.927152 111.257896 146.538489 110.995332 145.06727 111.003085 143.58513L111.003085 143.58513zM125.04832 142.063566C125.04832 140.005126 124.613675 138.434081 123.744385 137.350431 122.856441 136.256441 121.496315 135.65213 120.085918 135.724956 119.382426 135.722455 118.686464 135.869206 118.04433 136.155447 117.384577 136.450525 116.787672 136.868759 116.285881 137.387542 115.735246 137.961916 115.293486 138.630797 114.981947 139.361864 114.619186 140.220212 114.390521 141.128837 114.303901 142.056144L125.04832 142.063566zM129.007397 133.450681L131.796234 133.450681 132.084734 136.991909 132.210491 136.991909C132.817899 135.863274 133.662552 134.873934 134.688635 134.089263 135.593939 133.385778 136.714608 133.00229 137.869536 133.000771 138.600135 132.98843 139.325453 133.124308 140 133.399885L139.341627 136.302531C139.045911 136.205204 138.744548 136.125239 138.439139 136.063063 138.099772 136.004332 137.755454 135.977602 137.410894 135.98324 136.439321 136.025765 135.508878 136.380149 134.762609 136.991909 133.658689 137.926124 132.830912 139.134126 132.365837 140.489597L132.365837 153 129 153 129.007397 133.450681z"/></g></g></g></g></svg>

<svg xmlns="http://www.w3.org/2000/svg" role="img" viewBox="-3.24 -3.24 146.35 168.35"><title>Spinnaker logo</title><defs><linearGradient id="a" x1="82.179%" x2="34.613%" y1="-.474%" y2="114.441%"><stop offset="0%" stop-color="#2B3990"/><stop offset="16%" stop-color="#1E62A7"/><stop offset="32%" stop-color="#1485BC"/><stop offset="49%" stop-color="#0BA1CC"/><stop offset="66%" stop-color="#05B4D7"/><stop offset="83%" stop-color="#01C0DE"/><stop offset="100%" stop-color="#00C4E0"/></linearGradient><linearGradient id="b" x1="-31668%" x2="-19806%" y1="78954%" y2="78954%"><stop offset="0%" stop-color="#2B3990"/><stop offset="16%" stop-color="#1E62A7"/><stop offset="32%" stop-color="#1485BC"/><stop offset="49%" stop-color="#0BA1CC"/><stop offset="66%" stop-color="#05B4D7"/><stop offset="83%" stop-color="#01C0DE"/><stop offset="100%" stop-color="#00C4E0"/></linearGradient></defs><g transform="translate(-809 -414) translate(75 402) translate(734 12)" fill="none" fill-rule="evenodd" stroke="none" stroke-width="1"><path fill="url(#a)" d="M12 119.40069c54.06438 5.35914 97.47582-26.61925 108.30484-40.32218C131.13386 65.3756 114.71424 0 114.71424 0 96.91535 43.72585 64.55302 109.9983 12 119.42274v-.02205z" style="mix-blend-mode:multiply"/><path fill="url(#b)" d="M37 101.95058c31.89082 1.17402 56.16492-18.87969 62.01651-27.1932C104.86811 66.44386 95.90901 29 95.90901 29 87.04633 54.93847 62.38657 92.73454 37 101.95058z" style="mix-blend-mode:multiply"/><path fill="#149CB5" fill-rule="nonzero" d="M2.0807 147.61817c.98622 1.0234 2.1591 1.8558 3.45772 2.454 1.28873.61033 2.7006.92801 4.13112.92955 1.5138.09123 3.01247-.34014 4.23705-1.21956.99046-.77076 1.55162-1.95656 1.51323-3.19765.01806-.6039-.10353-1.20396-.35561-1.75498-.23109-.47171-.55812-.89184-.9609-1.23444-.44096-.36712-.92634-.67933-1.44514-.92955l-1.7856-.86262-3.94197-1.68806a18.75972 18.75972 0 0 1-1.9672-.98904c-.66486-.37945-1.27122-.8502-1.80075-1.39804-.54713-.57187-.98764-1.23388-1.30138-1.95577-.7194-1.76117-.6674-3.73607.14376-5.4583.4309-.87871 1.04432-1.65894 1.80074-2.29041.8051-.65914 1.72908-1.16366 2.72382-1.48728 1.11409-.36692 2.28283-.5479 3.45773-.53542 1.5632-.01023 3.1107.30664 4.5397.92955 1.33224.57437 2.5415 1.39196 3.56365 2.40939l-1.88397 2.23092c-.81362-.77835-1.7582-1.41237-2.79191-1.87397-1.09019-.46567-2.26921-.69642-3.45773-.67671-1.32237-.06507-2.62923.30378-3.71498 1.04853-.92971.68064-1.4566 1.76925-1.4073 2.90762-.01801.58028.12033 1.15493.401 1.66575.28513.45547.65776.85202 1.09709 1.16751.45709.35002.94884.65397 1.46783.90724.52963.26275 1.0744.51063 1.6343.74364l3.90413 1.65088a16.85256 16.85256 0 0 1 2.22445 1.13033c.67142.406 1.2782.90715 1.80074 1.48727.5158.58368.9207 1.25368 1.19545 1.97808.30766.83889.4564 1.72606.43884 2.6176.00238 1.02589-.21952 2.0403-.65069 2.97456-.43769.93968-1.0749 1.77641-1.86884 2.454-.86162.73047-1.85833 1.29098-2.93567 1.65089-1.2551.41416-2.57277.61534-3.89657.5949-3.6392.03016-7.12968-1.41742-9.64684-4.00077l2.0807-2.37964z"/><path fill="#149CB5" fill-rule="nonzero" d="M22.28833 155.23574V162H19v-28.50066h2.72462l.28186 2.30684h.12286c.88482-.77434 1.85512-1.43872 2.89084-1.97942 1.0215-.54176 2.15374-.82493 3.30279-.826 1.1488-.01658 2.28603.23798 3.32447.74414.95418.47358 1.78065 1.18145 2.40663 2.06128.66987.97082 1.1599 2.06066 1.44542 3.2147.3487 1.37967.51642 2.80121.49867 4.22672.025 1.5491-.20469 3.0914-.67935 4.5616-.40391 1.24156-1.02887 2.3948-1.84291 3.40073-.7322.9005-1.6475 1.62449-2.68126 2.1208-1.0017.48557-2.09446.73956-3.2016.74415-.93337-.00583-1.85481-.21639-2.70295-.61764-.96138-.45355-1.86843-1.0204-2.70294-1.6892l.10118 3.4677zm0-6.14661c.75697.69229 1.62512 1.24373 2.56563 1.62967.69058.28647 1.42413.4476 2.16813.47625.77545.0069 1.5404-.1849 2.22595-.5581.69347-.38248 1.29578-.91877 1.76341-1.57015.53105-.75169.92528-1.59632 1.16357-2.49288.29282-1.08764.43396-2.21264.41917-3.3412a14.95752 14.95752 0 0 0-.28186-2.97657c-.156-.82803-.4625-1.61828-.90339-2.32916-.40435-.62747-.95627-1.13944-1.60441-1.48829-.72597-.37383-1.53018-.55784-2.34159-.53578-.87725.01392-1.73707.25444-2.50058.6995-.97298.56636-1.87986 1.24546-2.70293 2.02406l.0289 10.46265zm17.21382-19.80153c-.65592.01706-1.29368-.2-1.78046-.60595-.46071-.4026-.72169-.96228-.72169-1.54773 0-.58546.26098-1.14514.7217-1.54774 1.03283-.78158 2.52015-.78158 3.553 0 .46283.40152.7253.9616.7253 1.54774 0 .58613-.26247 1.14621-.7253 1.54773-.48436.40484-1.11921.62187-1.77255.60595zm-1.84376 4.04454h3.60048V153h-3.60048v-19.66786zM44 133.48042h2.8118l.28783 2.81128h.12546c.90314-.8964 1.91142-1.68443 3.0037-2.34757 1.11549-.64798 2.39432-.97442 3.69003-.94192 2.10086 0 3.63592.64244 4.60517 1.92732.96924 1.28489 1.46125 3.18564 1.47601 5.70227V153h-3.35793v-11.92622c0-1.8452-.30013-3.17597-.90037-3.99231-.68391-.8551-1.75995-1.31523-2.86347-1.2245-.96928-.0183-1.92226.24649-2.738.76078-.97433.65851-1.8792 1.41096-2.70112 2.24613V153h-3.35793L44 133.48042zm18 .00005h2.78743l.28836 2.81127h.12569c.9048-.89639 1.91495-1.68442 3.00924-2.34756 1.1174-.64835 2.39871-.97481 3.69686-.94192 2.10474 0 3.64264.64244 4.61368 1.92732.97104 1.28488 1.46395 3.18563 1.47874 5.70225V153h-3.43068v-11.92619c0-1.8452-.30068-3.17597-.90204-3.9923-.68517-.85509-1.7632-1.31523-2.86876-1.2245-.97107-.0183-1.92581.24649-2.74307.76078-.97612.65851-1.88266 1.41096-2.7061 2.24613V153H62v-19.51953zm18.00792 14.83216c-.04991-2.10974 1.12078-4.06477 3.0207-5.0445 2.0138-1.16887 5.18805-1.98609 9.52276-2.45166a9.09015 9.09015 0 0 0-.1888-1.8499c-.11499-.57306-.34335-1.1183-.6721-1.60472-.32804-.47094-.76557-.85807-1.27624-1.12925-.63686-.31158-1.34342-.4598-2.05408-.4309-1.14485-.0107-2.2793.21453-3.33033.6612-.95973.40836-1.87766.9059-2.74128 1.48587l-1.38198-2.34766c1.1035-.68343 2.2659-1.27012 3.47381-1.75331 1.43756-.57765 2.97832-.86565 4.53106-.84694 2.482 0 4.28184.74293 5.3995 2.22878 1.19657 1.76773 1.78427 3.86685 1.6765 5.98801v12.28063h-2.84702l-.29452-2.3848h-.08307c-.97173.79225-2.03053 1.47505-3.15663 2.03562-1.10771.55841-2.33486.84876-3.57953.84694-1.56926.05558-3.10174-.47528-4.2894-1.48586-1.1825-1.0764-1.81637-2.61494-1.72935-4.19755zm3.39073-.24517c-.09435.94097.29009 1.867 1.02704 2.47396.73895.51124 1.62694.77202 2.52984.74293.97185.00091 1.92894-.23384 2.7866-.6835 1.0117-.54653 1.94816-1.21814 2.7866-1.99848v-5.55711a36.25806 36.25806 0 0 0-4.31206.78008c-.98585.23071-1.93578.59053-2.82435 1.06981-.62117.3346-1.14202.82395-1.51035 1.419-.3152.53239-.48192 1.1372-.48332 1.75331zM97 124h3.405v19.637h.128l8.698-10.428h3.791l-6.824 7.944L114 153h-3.791l-5.968-9.554-3.791 4.321v5.211h-3.405z"/><path fill="#149CB5" fill-rule="nonzero" d="M111.00308 143.58513a12.05613 12.05613 0 0 1 .74511-4.45336c.46108-1.22033 1.1486-2.34332 2.02669-3.31032.80413-.88016 1.78031-1.58737 2.86865-2.07824 1.04918-.48253 2.18994-.73562 3.34552-.74222a8.44066 8.44066 0 0 1 3.40514.66058c.9798.4204 1.84362 1.06958 2.51845 1.89267.70495.8802 1.23132 1.88854 1.54982 2.9689a13.0087 13.0087 0 0 1 .53648 3.867 11.55693 11.55693 0 0 1-.12667 1.84815h-13.5013c.02952 1.89806.74057 3.7228 2.00432 5.14362 1.21786 1.27065 2.9244 1.95982 4.68672 1.89268a7.92598 7.92598 0 0 0 2.66747-.43049 11.79957 11.79957 0 0 0 2.33218-1.12818l1.19962 2.22668a17.16484 17.16484 0 0 1-2.93571 1.43991 10.23616 10.23616 0 0 1-3.67337.61605 9.8686 9.8686 0 0 1-3.77768-.74222c-1.15064-.46648-2.19106-1.16669-3.05494-2.05597-.89751-.94095-1.59229-2.05486-2.04159-3.27322a12.19711 12.19711 0 0 1-.7749-4.34202zm14.04524-1.52156c0-2.05844-.43465-3.62949-1.30394-4.71314-.88794-1.09399-2.24807-1.6983-3.65846-1.62547a4.9713 4.9713 0 0 0-2.04159.43049c-.65975.29507-1.25666.7133-1.75845 1.2321-.55063.57437-.9924 1.24325-1.30393 1.97431a9.09334 9.09334 0 0 0-.67805 2.69428l10.74442.00743zm3.95908-8.61289h2.78883l.2885 3.54123h.12576c.6074-1.12864 1.45206-2.11798 2.47815-2.90265.9053-.70348 2.02597-1.08697 3.1809-1.08849.7306-.01234 1.45591.12354 2.13046.39912l-.65837 2.90264a7.97721 7.97721 0 0 0-.9025-.23947 5.50243 5.50243 0 0 0-1.02824-.07982c-.97157.04253-1.90201.3969-2.64828 1.00867-1.10392.93421-1.9317 2.14222-2.39677 3.49769V153H129l.0074-19.54932z"/></g></svg>
